Numix/16/status/indicator-keyboard-Av.svg

<?xml version="1.0" encoding="UTF-8" standalone="no"?>
<svg
   xmlns:dc="http://purl.org/dc/elements/1.1/"
   xmlns:cc="http://creativecommons.org/ns#"
   xmlns:rdf="http://www.w3.org/1999/02/22-rdf-syntax-ns#"
   xmlns:svg="http://www.w3.org/2000/svg"
   xmlns="http://www.w3.org/2000/svg"
   xmlns:sodipodi="http://sodipodi.sourceforge.net/DTD/sodipodi-0.dtd"
   xmlns:inkscape="http://www.inkscape.org/namespaces/inkscape"
   viewBox="0 0 16 16"
   id="svg2"
   version="1.1"
   inkscape:version="0.91 r13725"
   sodipodi:docname="indicator-keyboard-Av.svg">
  <metadata
     id="metadata13">
    <rdf:RDF>
      <cc:Work
         rdf:about="">
        <dc:format>image/svg+xml</dc:format>
        <dc:type
           rdf:resource="http://purl.org/dc/dcmitype/StillImage" />
      </cc:Work>
    </rdf:RDF>
  </metadata>
  <defs
     id="defs11" />
  <sodipodi:namedview
     pagecolor="#ffffff"
     bordercolor="#666666"
     borderopacity="1"
     objecttolerance="10"
     gridtolerance="10"
     guidetolerance="10"
     inkscape:pageopacity="0"
     inkscape:pageshadow="2"
     inkscape:window-width="640"
     inkscape:window-height="480"
     id="namedview9"
     showgrid="false"
     inkscape:zoom="14.75"
     inkscape:cx="8"
     inkscape:cy="8"
     inkscape:window-x="65"
     inkscape:window-y="24"
     inkscape:window-maximized="0"
     inkscape:current-layer="svg2" />
  <path
     style="fill:#ececec;fill-opacity:1"
     d="M 1.5996094 0 C 0.71320937 2.9605947e-16 0 0.71320937 0 1.5996094 L 0 14.400391 C 2.9605947e-16 15.286791 0.71320937 16 1.5996094 16 L 14.400391 16 C 15.286791 16 16 15.286791 16 14.400391 L 16 1.5996094 C 16 0.71320937 15.286791 0 14.400391 0 L 1.5996094 0 z M 5.65625 4.8808594 L 6.1953125 4.8808594 C 6.4173125 5.3428594 6.6281719 5.8055781 6.8261719 6.2675781 C 7.0241719 6.7295781 7.2219219 7.2127969 7.4199219 7.7167969 C 7.6239219 8.2147969 7.8310156 8.7445938 8.0410156 9.3085938 C 8.2510156 9.8665939 8.4786094 10.471141 8.7246094 11.119141 L 8.0507812 11.119141 C 7.9367812 10.813141 7.8285625 10.518328 7.7265625 10.236328 C 7.6245625 9.954328 7.5256875 9.6782031 7.4296875 9.4082031 L 4.3964844 9.4082031 C 4.2944844 9.6782031 4.1918438 9.954328 4.0898438 10.236328 C 3.9878438 10.518328 3.8833906 10.813141 3.7753906 11.119141 L 3.1367188 11.119141 C 3.3767188 10.471141 3.6005469 9.8665939 3.8105469 9.3085938 C 4.0205469 8.7445938 4.2258281 8.2147969 4.4238281 7.7167969 C 4.6278281 7.2127969 4.8273906 6.7295781 5.0253906 6.2675781 C 5.2233906 5.8055781 5.43425 5.3428594 5.65625 4.8808594 z M 5.9082031 5.5839844 C 5.6802031 6.0999844 5.4581875 6.6242031 5.2421875 7.1582031 C 5.0321875 7.6922031 4.8139375 8.2687188 4.5859375 8.8867188 L 7.2402344 8.8867188 C 7.0122344 8.2687188 6.7902187 7.6922031 6.5742188 7.1582031 C 6.3582188 6.6242031 6.1362031 6.0999844 5.9082031 5.5839844 z M 8.9042969 6.4648438 L 9.5253906 6.4648438 C 9.5973906 6.7828437 9.6831563 7.1261875 9.7851562 7.4921875 C 9.8931562 7.8521875 10.006953 8.2122656 10.126953 8.5722656 C 10.252953 8.9262656 10.383625 9.2714219 10.515625 9.6074219 C 10.647625 9.937422 10.776344 10.230281 10.902344 10.488281 C 11.028344 10.230281 11.157063 9.937422 11.289062 9.6074219 C 11.421062 9.2714219 11.546016 8.9262656 11.666016 8.5722656 C 11.792016 8.2122656 11.907766 7.8521875 12.009766 7.4921875 C 12.117766 7.1261875 12.207297 6.7828437 12.279297 6.4648438 L 12.863281 6.4648438 C 12.755281 6.8908438 12.635906 7.3106094 12.503906 7.7246094 C 12.371906 8.1386094 12.230078 8.5454063 12.080078 8.9414062 C 11.936078 9.3374062 11.783094 9.7179842 11.621094 10.083984 C 11.465094 10.449984 11.312109 10.795141 11.162109 11.119141 L 10.605469 11.119141 C 10.449469 10.795141 10.292719 10.449984 10.136719 10.083984 C 9.980719 9.7179842 9.8277344 9.3374062 9.6777344 8.9414062 C 9.5337344 8.5454062 9.3956719 8.1386094 9.2636719 7.7246094 C 9.1316719 7.3106094 9.0122969 6.8908437 8.9042969 6.4648438 z "
     id="path4" />
</svg>

<svg xmlns="http://www.w3.org/2000/svg" viewBox="0 0 16 16">
 <path d="m 1.6 0 c -0.886 0 -1.6 0.713 -1.6 1.6 l 0 12.801 c 0 0.886 0.713 1.6 1.6 1.6 l 12.801 0 c 0.886 0 1.6 -0.713 1.6 -1.6 l 0 -12.801 c 0 -0.886 -0.713 -1.6 -1.6 -1.6 l -12.801 0 z m 4.057 4.881 l 0.539 0 c 0.222 0.462 0.433 0.925 0.631 1.387 c 0.198 0.462 0.396 0.945 0.594 1.449 c 0.204 0.498 0.411 1.028 0.621 1.592 c 0.21 0.558 0.438 1.163 0.684 1.811 l -0.674 0 c -0.114 -0.306 -0.222 -0.601 -0.324 -0.883 c -0.102 -0.282 -0.201 -0.558 -0.297 -0.828 l -3.033 0 c -0.102 0.27 -0.205 0.546 -0.307 0.828 c -0.102 0.282 -0.206 0.577 -0.314 0.883 l -0.639 0 c 0.24 -0.648 0.464 -1.253 0.674 -1.811 c 0.21 -0.564 0.415 -1.094 0.613 -1.592 c 0.204 -0.504 0.404 -0.987 0.602 -1.449 c 0.198 -0.462 0.409 -0.925 0.631 -1.387 z m 0.252 0.703 c -0.228 0.516 -0.45 1.04 -0.666 1.574 c -0.21 0.534 -0.428 1.111 -0.656 1.729 l 2.654 0 c -0.228 -0.618 -0.45 -1.195 -0.666 -1.729 c -0.216 -0.534 -0.438 -1.058 -0.666 -1.574 z m 2.996 0.881 l 0.621 0 c 0.072 0.318 0.158 0.661 0.26 1.027 c 0.108 0.36 0.222 0.72 0.342 1.08 c 0.126 0.354 0.257 0.699 0.389 1.035 c 0.132 0.33 0.261 0.623 0.387 0.881 c 0.126 -0.258 0.255 -0.551 0.387 -0.881 c 0.132 -0.336 0.257 -0.681 0.377 -1.035 c 0.126 -0.36 0.242 -0.72 0.344 -1.08 c 0.108 -0.366 0.198 -0.709 0.27 -1.027 l 0.584 0 c -0.108 0.426 -0.227 0.846 -0.359 1.26 c -0.132 0.414 -0.274 0.821 -0.424 1.217 c -0.144 0.396 -0.297 0.777 -0.459 1.143 c -0.156 0.366 -0.309 0.711 -0.459 1.035 l -0.557 0 c -0.156 -0.324 -0.313 -0.669 -0.469 -1.035 c -0.156 -0.366 -0.309 -0.747 -0.459 -1.143 c -0.144 -0.396 -0.282 -0.803 -0.414 -1.217 c -0.132 -0.414 -0.251 -0.834 -0.359 -1.26 z" style="fill:#ececec;fill-opacity:1"/>
</svg>
